X: 7505
T: Coast Of Austria, The
R: reel
M: 4/4
K: Amajor
|:ce ~e2 fece|ef~f2 ecBc|Ae ~e2 fece|fa{b}ag a2 z2|
c'bac' bafg|ef{a}fe fa{b}af|e2ce ef ~f2|1 ecBc A2 z2:|2 ecBc A2 B2||
|:!slide!c3B AF ~F2|~E3F ~A3B|ce ~e2 fece|fa{b}ag a2z2|
c'bac' bafz|ef{a}fe fa{b}af|~e2ce ef~f2|1 ecBc A2 B2:|2 ecBc A2 z2:|

